lugar/img/footer/phone.svg

<svg width="14" height="14" viewBox="0 0 14 14" fill="none" xmlns="http://www.w3.org/2000/svg">
<path d="M3.86167 6.29417C4.70167 7.945 6.055 9.2925 7.70583 10.1383L8.98917 8.855C9.14667 8.6975 9.38 8.645 9.58417 8.715C10.2375 8.93083 10.9433 9.0475 11.6667 9.0475C11.9875 9.0475 12.25 9.31 12.25 9.63083V11.6667C12.25 11.9875 11.9875 12.25 11.6667 12.25C6.18917 12.25 1.75 7.81083 1.75 2.33333C1.75 2.0125 2.0125 1.75 2.33333 1.75H4.375C4.69583 1.75 4.95833 2.0125 4.95833 2.33333C4.95833 3.0625 5.075 3.7625 5.29083 4.41583C5.355 4.62 5.30833 4.8475 5.145 5.01083L3.86167 6.29417Z" fill="#BDBDBD"/>
</svg>

<svg width="14" height="14" fill="none" xmlns="http://www.w3.org/2000/svg"><path d="M3.862 6.294a8.836 8.836 0 003.844 3.844l1.283-1.283a.58.58 0 01.595-.14c.654.216 1.36.332 2.083.332.32 0 .583.263.583.584v2.036c0 .32-.262.583-.583.583A9.916 9.916 0 011.75 2.333c0-.32.263-.583.583-.583h2.042c.32 0 .583.263.583.583 0 .73.117 1.43.333 2.083a.585.585 0 01-.146.595L3.862 6.294z" fill="#BDBDBD"/></svg>
